Yaru++/actions/16/text_line_spacing.svg

<svg viewBox="0 0 24 24" xmlns="http://www.w3.org/2000/svg"><path d="m4 4v1h9v-1zm0 2v1h8v-1zm0 3v1h9v-1zm0 2v1h4v-1zm0 3v1h9v-1zm0 2v1h6v-1zm7 1v1h2v-1z" fill="#808080"/><path d="m17 4-3 4h2v1 5 2h-2l3 4 3-4h-2v-3-1-3-1h2z" fill="#1d99f3"/></svg>

<svg xmlns="http://www.w3.org/2000/svg" viewBox="0 0 24 24">
 <defs>
  <style id="current-color-scheme" type="text/css">
   .ColorScheme-Text { color:#808080; } .ColorScheme-Highlight { color:#1d99f3; }
  </style>
 </defs>
 <path style="fill:currentColor" class="ColorScheme-Text" d="M 4 4 L 4 5 L 13 5 L 13 4 L 4 4 z M 4 6 L 4 7 L 12 7 L 12 6 L 4 6 z M 4 9 L 4 10 L 13 10 L 13 9 L 4 9 z M 4 11 L 4 12 L 8 12 L 8 11 L 4 11 z M 4 14 L 4 15 L 13 15 L 13 14 L 4 14 z M 4 16 L 4 17 L 10 17 L 10 16 L 4 16 z M 11 17 L 11 18 L 13 18 L 13 17 L 11 17 z"/>
 <path style="fill:currentColor" class="ColorScheme-Highlight" d="M 17 4 L 14 8 L 16 8 L 16 9 L 16 14 L 16 16 L 14 16 L 17 20 L 20 16 L 18 16 L 18 13 L 18 12 L 18 9 L 18 8 L 20 8 L 17 4 z"/>
</svg>
